icons/1_Primary/Twilio.svg

<svg width="1024" height="1024" fill="none" xmlns="http://www.w3.org/2000/svg"><g clip-path="url(#a)"><path d="M512 1024c282.77 0 512-229.23 512-512S794.77 0 512 0 0 229.23 0 512s229.23 512 512 512Z" fill="#FF837D"/><path d="M512 256c-141.653 0-256 114.347-256 256 0 141.653 114.347 256 256 256 141.653 0 256-114.347 256-256 0-141.653-114.347-256-256-256Zm0 443.733c-104.107 0-187.733-83.626-187.733-187.733S407.893 324.267 512 324.267 699.733 407.893 699.733 512 616.107 699.733 512 699.733Zm116.053-250.88c0 29.014-23.893 52.907-52.906 52.907-29.014 0-52.907-23.893-52.907-52.907 0-29.013 23.893-52.906 52.907-52.906 29.013 0 52.906 23.893 52.906 52.906Zm0 126.294c0 29.013-23.893 52.906-52.906 52.906-29.014 0-52.907-23.893-52.907-52.906 0-29.014 23.893-52.907 52.907-52.907 29.013 0 52.906 23.893 52.906 52.907Zm-126.293 0c0 29.013-23.893 52.906-52.907 52.906-29.013 0-52.906-23.893-52.906-52.906 0-29.014 23.893-52.907 52.906-52.907 29.014 0 52.907 23.893 52.907 52.907Zm0-126.294c0 29.014-23.893 52.907-52.907 52.907-29.013 0-52.906-23.893-52.906-52.907 0-29.013 23.893-52.906 52.906-52.906 29.014 0 52.907 23.893 52.907 52.906Z" fill="#fff"/></g><defs><clipPath id="a"><path fill="#fff" d="M0 0h1024v1024H0z"/></clipPath></defs></svg>

<svg width="1024" height="1024" viewBox="0 0 1024 1024" fill="none" xmlns="http://www.w3.org/2000/svg">
<g clip-path="url(#clip0_2_3756)">
<path d="M512 1024C794.77 1024 1024 794.77 1024 512C1024 229.23 794.77 0 512 0C229.23 0 0 229.23 0 512C0 794.77 229.23 1024 512 1024Z" fill="#FF837D"/>
<path d="M512 256C370.347 256 256 370.347 256 512C256 653.653 370.347 768 512 768C653.653 768 768 653.653 768 512C768 370.347 653.653 256 512 256ZM512 699.733C407.893 699.733 324.267 616.107 324.267 512C324.267 407.893 407.893 324.267 512 324.267C616.107 324.267 699.733 407.893 699.733 512C699.733 616.107 616.107 699.733 512 699.733ZM628.053 448.853C628.053 477.867 604.16 501.76 575.147 501.76C546.133 501.76 522.24 477.867 522.24 448.853C522.24 419.84 546.133 395.947 575.147 395.947C604.16 395.947 628.053 419.84 628.053 448.853ZM628.053 575.147C628.053 604.16 604.16 628.053 575.147 628.053C546.133 628.053 522.24 604.16 522.24 575.147C522.24 546.133 546.133 522.24 575.147 522.24C604.16 522.24 628.053 546.133 628.053 575.147ZM501.76 575.147C501.76 604.16 477.867 628.053 448.853 628.053C419.84 628.053 395.947 604.16 395.947 575.147C395.947 546.133 419.84 522.24 448.853 522.24C477.867 522.24 501.76 546.133 501.76 575.147ZM501.76 448.853C501.76 477.867 477.867 501.76 448.853 501.76C419.84 501.76 395.947 477.867 395.947 448.853C395.947 419.84 419.84 395.947 448.853 395.947C477.867 395.947 501.76 419.84 501.76 448.853Z" fill="white"/>
</g>
<defs>
<clipPath id="clip0_2_3756">
<rect width="1024" height="1024" fill="white"/>
</clipPath>
</defs>
</svg>
